**kern	**kern	**dynam
*part1	*part1	*part1
*staff2	*staff1	*
*I"Piano	*	*
*clefF4	*clefG2	*
*k[f#c#]	*k[f#c#]	*
=1	=1	=1
(16qqAA/LL	.	mf
16qqE/	.	.
16qqGn/JJ	.	.
*	*^	*
[4.c#) [4.e	8ff#XL	[4.gn	.
.	8ee	.	.
.	8cc#J	.	.
4c#] 4e]	8aL	4g]	.
.	8g#X	.	.
8r	8gnJ)	8rg	.
*	*v	*v	*
=	=	=
4.DD 4.D	4.cn 4.f# 4.a	<
*	*^	*
4.GG#X 4.Fn	(8bL	4.d	.
.	8cc#X	.	.
.	8ddJ	.	.
=	=	=	=
(16qqAA/LL	.	.	[ f
16qqE/	.	.	.
16qqGn/JJ	.	.	.
[4.c#X) [4.e	8ff#XL	[4.gn	.
.	8ee	.	.
.	8cc#J	.	.
4c#] 4e]	8aL	4g]	.
.	8g#X	.	.
8r	8gnJ)	8rg	.
*	*v	*v	*
=	=	=
!	!LO:TX:a:Bi:t=ritard.	!
8qDD/	8qcn/ 8qf# 8qa	.
2.D	(8eeL	.
.	8ee-X	.
.	8ddJ	.
.	8cc#XL	.
.	8ccn	.
.	8f#J)	.
=	=	=
*^	*^	*
(8enL	[2.D	(4a	4.B	.
8e-X	.	.	.	.
8dJ	.	[8g	.	.
8c#XL	.	4g]	4B-X	.
8B-X	.	.	.	.
[8GJ)	.	[8c#X	[8B-	.
=	=	=	=	=
(2.G]	2.D_	2.c#] 2.e	2.B-]	.
*	*	*v	*v	*
=	=	=	=
.	.	8qd/	.
4F#)	4D]	4A) 4d	.
8r	8ryy	8r	.
4r	4ryy	4r	.
8r	8ryy	8r	.
*v	*v	*	*
==	==	==
*-	*-	*-
!!!system-decoration: {(s1,s2)}
